!!!COM: (Edward) Benjamin Britten
!!!OTL: [T795_Bri-w26p27h21m6-14]
**kern	**dynam	**kern	**dynam	**kern	**dynam	**kern	**dynam	**kern	**dynam	**kern	**dynam	**kern	**dynam	**text
*grp:A	*	*grp:A	*	*grp:A	*	*grp:A	*	*grp:A	*	*grp:B	*	*grp:A	*	*
*part7	*part7	*part6	*part6	*part5	*part5	*part4	*part4	*part3	*part3	*part2	*part2	*part1	*part1	*part1
*staff7	*	*staff6	*	*staff5	*	*staff4	*	*staff3	*	*staff2	*	*staff1	*staff1	*staff1
*I"Contrabass	*	*I"Violoncello	*	*I"Viola	*	*I"Violin II	*	*I"Violin I	*	*I"Horn in F	*	*I"Voice	*	*
*I'Cb.	*	*I'Vc.	*	*I'Vla.	*	*I'Vln. II	*	*I'Vln. I	*	*I'Hn.	*	*I'Voice	*	*
*clefF4	*	*clefF4	*	*clefC3	*	*clefG2	*	*clefG2	*	*clefG2	*	*clefG2	*	*
*ITrd7c12	*	*	*	*	*	*	*	*	*	*ITrd4c7	*	*ITrd7c12	*	*
*k[b-e-]	*	*k[b-e-]	*	*k[b-e-]	*	*k[b-e-]	*	*k[b-e-]	*	*k[b-e-]	*	*k[b-e-]	*	*
*B-:	*	*B-:	*	*B-:	*	*B-:	*	*B-:	*	*B-:	*	*B-:	*	*
*M2/4	*	*M2/4	*	*M2/4	*	*M2/4	*	*M2/4	*	*M6/8	*	*M2/4	*	*
*	*	*	*	*	*	*	*	*	*	*Xtuplet	*	*	*	*
!!LO:TX:B:t=Presto e leggiero ([quarter] = 168-176)]
!LO:TX:a:t=[sempre pizz.]	!LO:DY:t=[ %s ]	!LO:TX:a:t=[sempre pizz.]	!LO:DY:t=[ %s ]	!LO:TX:a:t=[sempre pizz.]	!LO:DY:t=[ %s ]	!LO:TX:a:t=[sempre pizz.]	!LO:DY:t=[ %s ]	!LO:TX:a:t=[sempre pizz.]	!LO:DY:t=[ %s ]	!	!LO:DY:t=[ %s ]	!	!LO:DY:t=[ %s ]	!
4ryy	4ryy	4ryy	4ryy	4ryy	4ryy	4ryy	4ryy	4ryy	4ryy	(12FL	4ryy	4ryy	4ryy	.
.	.	.	.	.	.	.	.	.	.	12e-X)	.	.	.	.
.	.	.	.	.	.	.	.	.	.	12dJ	.	.	.	.
8ryy	.	8ryy	.	8ryy	.	8ryy	.	8ryy	.	[6.c	.	8ryy	.	4ryy
8ryy	.	8ryy	.	8ryy	.	8ryy	.	8ryy	.	.	.	8ryy	.	4ryy
=	=	=	=	=	=	=	=	=	=	=	=	=	=	=
8ryy	.	8ryy	.	8ryy	.	8ryy	.	8ryy	.	12cL]	.	8ryy	.	4ryy
.	.	.	.	.	.	.	.	.	.	12c	.	.	.	.
8ryy	.	8ryy	.	8ryy	.	8ryy	.	8ryy	.	.	.	8ryy	.	4ryy
.	.	.	.	.	.	.	.	.	.	12dJ	.	.	.	.
8ryy	.	8ryy	.	8ryy	.	8ryy	.	8ryy	.	[6.e-	.	8ryy	.	4ryy
8ryy	.	8ryy	.	8ryy	.	8ryy	.	8ryy	.	.	.	8ryy	.	4ryy
=	=	=	=	=	=	=	=	=	=	=	=	=	=	=
8ryy	.	8ryy	.	8ryy	.	8ryy	.	8ryy	.	12e-L]	.	4ryy	.	4ryy
.	.	.	.	.	.	.	.	.	.	12e-	.	.	.	.
8ryy	.	8ryy	.	8ryy	.	8ryy	.	8ryy	.	.	.	.	.	.
.	.	.	.	.	.	.	.	.	.	12dJ	.	.	.	.
8ryy	4ryy	8ryy	4ryy	8ryy	4ryy	8ryy	4ryy	8ryy	4ryy	12cL	4ryy	4ryy	.	.
.	.	.	.	.	.	.	.	.	.	12d	.	.	.	.
8ryy	.	8ryy	.	8ryy	.	8ryy	.	8ryy	.	.	.	.	.	.
.	.	.	.	.	.	.	.	.	.	12e-J	.	.	.	.
=	=	=	=	=	=	=	=	=	=	=	=	=	=	=
4ryy	.	4ryy	.	4ryy	.	4ryy	.	4ryy	.	12fL	.	2ryy	.	.
.	.	.	.	.	.	.	.	.	.	12g	.	.	.	.
.	.	.	.	.	.	.	.	.	.	12aJ	.	.	.	.
8ryy	4ryy	8ryy	4ryy	8ryy	4ryy	8ryy	4ryy	8ryy	4ryy	12b-L	4ryy	.	.	.
.	.	.	.	.	.	.	.	.	.	12b-J	4ryy	.	.	.
8ryy	.	8ryy	.	8ryy	.	8ryy	.	8ryy	.	.	.	.	.	.
.	.	.	.	.	.	.	.	.	.	12r	.	.	.	.
=	=	=	=	=	=	=	=	=	=	=	=	=	=	=
8ryy	.	8ryy	.	8ryy	.	8ryy	.	8ryy	.	12aL	.	4.ryy	.	4ryy
.	.	.	.	.	.	.	.	.	.	12aJ	.	.	.	.
8ryy	.	8ryy	.	8ryy	.	8ryy	.	8ryy	.	.	.	.	.	.
.	.	.	.	.	.	.	.	.	.	12r	.	.	.	.
8ryy	.	8ryy	.	8ryy	.	8ryy	.	8ryy	.	12gL	.	.	.	.
.	.	.	.	.	.	.	.	.	.	12gJ	.	.	.	.
8ryy	.	8ryy	.	8ryy	.	8ryy	.	8ryy	.	.	.	8ryy	.	4ryy
.	.	.	.	.	.	.	.	.	.	12r	.	.	.	.
=	=	=	=	=	=	=	=	=	=	=	=	=	=	=
8ryy	.	8ryy	.	8ryy	.	8ryy	.	8ryy	.	12a^L	.	8ryy	.	4ryy
.	.	.	.	.	.	.	.	.	.	12aJ	.	.	.	.
8ryy	.	8ryy	.	8ryy	.	8ryy	.	8ryy	.	.	.	8ryy	.	.
.	.	.	.	.	.	.	.	.	.	12r	.	.	.	.
8ryy	.	8ryy	.	8ryy	.	8ryy	.	8ryy	.	12gL	.	8ryy	.	4ryy
.	.	.	.	.	.	.	.	.	.	12gJ	.	.	.	.
8ryy	.	8ryy	.	8ryy	.	8ryy	.	8ryy	.	.	.	8ryy	.	.
.	.	.	.	.	.	.	.	.	.	12r	.	.	.	.
=	=	=	=	=	=	=	=	=	=	=	=	=	=	=
8ryy	.	8ryy	.	8ryy	.	8ryy	.	8ryy	.	12fL	.	8ryy	.	4ryy
.	.	.	.	.	.	.	.	.	.	12fJ	.	.	.	.
8ryy	.	8ryy	.	8ryy	.	8ryy	.	8ryy	.	.	.	8ryy	.	.
.	.	.	.	.	.	.	.	.	.	12r	.	.	.	.
8ryy	.	8ryy	.	8ryy	.	8ryy	.	8ryy	.	12eL	.	8ryy	.	4ryy
.	.	.	.	.	.	.	.	.	.	12eJ	.	.	.	.
8ryy	.	8ryy	.	8ryy	.	8ryy	.	8ryy	.	.	.	8ryy	.	.
.	.	.	.	.	.	.	.	.	.	12r	.	.	.	.
=	=	=	=	=	=	=	=	=	=	=	=	=	=	=
8ryy	.	8ryy	4ryy	8ryy	4ryy	8ryy	4ryy	8ryy	4ryy	([6.d	.	4.ryy	.	4ryy
8ryy	.	8ryy	.	8ryy	.	8ryy	.	8ryy	.	.	.	.	.	.
4ryy	.	8ryy	4ryy	8ryy	4ryy	8ryy	.	8ryy	.	12dL]	.	.	.	.
.	.	.	.	.	.	.	.	.	.	12a)	.	.	.	.
.	.	8ryy	.	8ryy	.	8ryy	4ryy	8ryy	4ryy	.	.	8ryy	.	.
.	.	.	.	.	.	.	.	.	.	12f#XJ	.	.	.	.
=	=	=	=	=	=	=	=	=	=	=	=	=	=	=
2ryy	.	8ryy	.	8ryy	.	8ryy	.	8ryy	.	([6.d	.	2ryy	.	.
.	.	8ryy	4ryy	8ryy	4ryy	8ryy	4ryy	8ryy	4ryy	.	.	.	.	.
.	.	8ryy	4ryy	8ryy	.	8ryy	.	8ryy	.	12dL]	.	.	.	.
.	.	.	.	.	.	.	.	.	.	12a)	.	.	.	.
.	.	8ryy	.	8ryy	4ryy	8ryy	4ryy	8ryy	4ryy	.	.	.	.	.
.	.	.	.	.	.	.	.	.	.	12f#XJ	.	.	.	.
=	=	=	=	=	=	=	=	=	=	=	=	=	=	=
*-	*-	*-	*-	*-	*-	*-	*-	*-	*-	*-	*-	*-	*-	*-
!!!system-decoration: s1,s2[(s3,s4,s5,s6,s7)]
!!!EED:Jason Lee
!!!EEV:2022/01/27
